X: 33
T:Tobin's Favourite
M:6/8
L:1/8
R:Double Jig
K:D
A[|:DFA dcd|ecA cde|fdf gfg|ecA GFE|!
DFA dcd|ecA efg|f/2g/2af gec|edc d2A:|!
|:dfa agf|efg efg|fdf gfg|ecA GFE|!
DFA dcd|ecA efg|f/2g/2af gec|edc d2A:|]!
